!! 00000] TT[WS
!!!OTL: Da Taiyuan
!!!ARE: Asia, China, Shanxi Dingxiang
!! Ethnic Group: Han
!! WI, 315 (2)
!!!SCT: J0382
!!!YEM: Copyright 1995, estate of Helmut Schaffrath.
**kern
*ICvox
*Ivox
!! Mixed meters:  2/4; 3/4
*M3/4
*k[f#]
*G:
{8r
8dd
8b
8dd
=1
16dd
16b
4.a
=2
8r
8dd
8b
8ee
=3
8.b
16a
4g}
=4
{8r
8a
8a
8a
=5
8a
8e
8d
8d
=6
8e
8g
8b
8a
=7
8g
8e
2d}
=8
*M2/4
{8g
8d
[4g
=9
8g]
4a
8b
=10
4a
8e
8g
=11
8.a
16e
4d}
=12
{8.a
16b
8dd
8dd
=13
8dd
8ee
4dd
=14
8b
8b
8a
8g
=15
8a
8b
4dd}
=16
*M3/4
{4gg
8r
8g
8e
8d
=17
*M2/4
8a
8e
8d
8dd
=18
8e
8g
8b
8a
=19
8g
8e
2d}
==
!!!AGN: Xiaodiao. Xinminge, Xuanchuan
!! Neue Text. Politische Liede
!!!ONB: ESAC (Essen Associative Code) Database: CHINA
!!!AMT: irregular
!!!AIN: vox
!!!EED: Helmut Schaffrath
!!!EEV: 1.0
*-
!!!ONB: Tied note syntax fixed by Craig Sapp, 2004/05/03/
